img/bag.svg

<svg width="48" height="48" fill="none" xmlns="http://www.w3.org/2000/svg"><path d="M8.75216 16.9953c-.11398-1.4533 1.03458-2.6955 2.49234-2.6955h25.511c1.4578 0 2.6063 1.2422 2.4923 2.6955l-1.6627 21.2c-.102 1.3009-1.1875 2.3045-2.4924 2.3045H12.9073c-1.3049 0-2.3904-1.0036-2.4924-2.3045l-1.66274-21.2Z" stroke="#fff"/><path d="M15.004 24.4857S14.5437 7 23.5 7s8.496 17.4857 8.496 17.4857" stroke="#fff"/></svg>

<svg width="48" height="48" viewBox="0 0 48 48" fill="none" xmlns="http://www.w3.org/2000/svg">
<path d="M8.75216 16.9953C8.63818 15.542 9.78674 14.2998 11.2445 14.2998H36.7555C38.2133 14.2998 39.3618 15.542 39.2478 16.9953L37.5851 38.1953C37.4831 39.4962 36.3976 40.4998 35.0927 40.4998H12.9073C11.6024 40.4998 10.5169 39.4962 10.4149 38.1953L8.75216 16.9953Z" stroke="white"/>
<path d="M15.004 24.4857C15.004 24.4857 14.5437 7 23.5 7C32.4563 7 31.996 24.4857 31.996 24.4857" stroke="white"/>
</svg>
